img/site-icons/footer/reddit.svg

<svg width="1000" height="1000" viewBox="0 0 1000 1000" fill="none" xmlns="http://www.w3.org/2000/svg">
<path d="M388 602C374 602 362 597 352 587C342 577 337 565 337 551C337 537 342 525 352 515C362 505 374 500 388 500C402 500 414 505 424 515C434 525 439 537 439 551C439 565 434 577 424 587C414 597 402 602 388 602ZM602 667C592 677 576.333 684.333 555 689C537 693.667 518.5 696 499.5 696C480.5 696 462.333 693.667 445 689C423.667 684.333 408 677 398 667C395.333 663.667 392.167 662 388.5 662C384.833 662 381.667 663.5 379 666.5C376.333 669.5 375 672.667 375 676C375 679.333 376.333 682.333 379 685C394.333 700.333 416.667 711 446 717C463.333 721 481.333 723 500 723C518.667 723 537 721 555 717C583.667 711 605.667 700.333 621 685C623.667 682.333 625 679.333 625 676C625 672.667 623.667 669.5 621 666.5C618.333 663.5 615.167 662 611.5 662C607.833 662 604.667 663.667 602 667ZM988 500C988 588.667 965.667 671 921 747C878.333 820.333 820.333 878.333 747 921C671 965.667 588.667 988 500 988C411.333 988 329 965.667 253 921C179.667 878.333 121.667 820 79 746C34.3333 670 12 588 12 500C12 412 34.3333 330 79 254C121.667 180 179.667 121.667 253 79C329 34.3333 411.333 12 500 12C588.667 12 671 34.3333 747 79C820.333 121.667 878.333 179.667 921 253C965.667 329 988 411.333 988 500ZM826 500C826 480 819 463.167 805 449.5C791 435.833 774.167 429 754.5 429C734.833 429 718.333 435.667 705 449C680.333 431 651.667 416.667 619 406C586.333 395.333 551.667 389.333 515 388L547 236L653 258C653.667 271.333 659 282.833 669 292.5C679 302.167 690.833 307 704.5 307C718.167 307 730 302 740 292C750 282 755 270 755 256C755 242 750 230 740 220C730 210 718 205 704 205C694 205 685 207.667 677 213C669 218.333 662.667 225 658 233L540 208C536.667 206.667 533.333 207.167 530 209.5C526.667 211.833 525 214.667 525 218L489 385V388C451.667 388.667 416.333 394.333 383 405C349.667 415.667 320.333 430.333 295 449C281.667 435.667 265.333 429 246 429C226.667 429 210 435.833 196 449.5C182 463.167 175 480 175 500C175 514.667 178.833 527.833 186.5 539.5C194.167 551.167 204.333 559.667 217 565C215.667 574.333 215 581.333 215 586C215 622 227.833 655.167 253.5 685.5C279.167 715.833 313.833 740 357.5 758C401.167 776 448.667 785 500 785C551.333 785 598.833 776 642.5 758C686.167 740 720.833 715.833 746.5 685.5C772.167 655.167 785 622 785 586C785 581.333 784.333 574.333 783 565C795.667 559.667 805.833 551.167 813.5 539.5C821.167 527.833 825.333 514.667 826 500ZM612 500C598 500 586 505 576 515C566 525 561 537 561 551C561 565 566 577 576 587C586 597 598 602 612 602C626 602 638 597 648 587C658 577 663 565 663 551C663 537 658 525 648 515C638 505 626 500 612 500Z" fill="#ED9092"/>
</svg>

<?xml version="1.0" encoding="UTF-8" standalone="no"?>
<svg
   viewBox="0 0 1000 1000"
   version="1.1"
   id="svg510"
   sodipodi:docname="reddit.svg"
   inkscape:version="1.2.2 (b0a8486541, 2022-12-01)"
   xmlns:inkscape="http://www.inkscape.org/namespaces/inkscape"
   xmlns:sodipodi="http://sodipodi.sourceforge.net/DTD/sodipodi-0.dtd"
   xmlns="http://www.w3.org/2000/svg"
   xmlns:svg="http://www.w3.org/2000/svg">
  <defs
     id="defs514" />
  <sodipodi:namedview
     id="namedview512"
     pagecolor="#ffffff"
     bordercolor="#666666"
     borderopacity="1.0"
     inkscape:showpageshadow="2"
     inkscape:pageopacity="0.0"
     inkscape:pagecheckerboard="0"
     inkscape:deskcolor="#d1d1d1"
     showgrid="false"
     inkscape:zoom="0.779"
     inkscape:cx="500"
     inkscape:cy="499.35815"
     inkscape:window-width="1920"
     inkscape:window-height="959"
     inkscape:window-x="0"
     inkscape:window-y="48"
     inkscape:window-maximized="1"
     inkscape:current-layer="svg510" />
  <path
     d="M388 602q-21 0-36-15-15-15-15-36 0-21 15-36 15-15 36-15 21 0 36 15 15 15 15 36 0 21-15 36-15 15-36 15z m214 65q-15 15-47 22-27 7-55.5 7-28.5 0-54.5-7-32-7-47-22-4-5-9.5-5-5.5 0-9.5 4.5-4 4.5-4 9.5 0 5 4 9 23 23 67 32 26 6 54 6 28 0 55-6 43-9 66-32 4-4 4-9 0-5-4-9.5-4-4.5-9.5-4.5-5.5 0-9.5 5z m386-167q0 133-67 247-64 110-174 174-114 67-247 67-133 0-247-67-110-64-174-175-67-114-67-246 0-132 67-246 64-111 174-175 114-67 247-67 133 0 247 67 110 64 174 174 67 114 67 247z m-162 0q0-30-21-50.5-21-20.5-50.5-20.5-29.5 0-49.5 20-37-27-86-43-49-16-104-18l32-152 106 22q1 20 16 34.5 15 14.5 35.5 14.5 20.5 0 35.5-15 15-15 15-36 0-21-15-36-15-15-36-15-15 0-27 8-12 8-19 20l-118-25q-5-2-10 1.5-5 3.5-5 8.5l-36 167 0 3q-56 1-106 17-50 16-88 44-20-20-49-20-29 0-50 20.5-21 20.5-21 50.5 0 22 11.5 39.5 11.5 17.5 30.5 25.5-2 14-2 21 0 54 38.5 99.5 38.5 45.5 104 72.5 65.5 27 142.5 27 77 0 142.5-27 65.5-27 104-72.5 38.5-45.5 38.5-99.5 0-7-2-21 19-8 30.5-25.5 11.5-17.5 12.5-39.5z m-214 0q-21 0-36 15-15 15-15 36 0 21 15 36 15 15 36 15 21 0 36-15 15-15 15-36 0-21-15-36-15-15-36-15z"
     id="path508"
     style="fill:#8c939a;fill-opacity:1" />
</svg>
